SVG_Azure_All/Cognitive Services Bot Test in Web Chat.svg

<?xml version="1.0" encoding="UTF-8" standalone="no"?>
<!-- Generated by Microsoft Visio, SVG Export Cognitive Services Bot Test in Web Chat.svg Page-1 -->

<svg
   xmlns:dc="http://purl.org/dc/elements/1.1/"
   xmlns:cc="http://creativecommons.org/ns#"
   xmlns:rdf="http://www.w3.org/1999/02/22-rdf-syntax-ns#"
   xmlns:svg="http://www.w3.org/2000/svg"
   xmlns="http://www.w3.org/2000/svg"
   xmlns:sodipodi="http://sodipodi.sourceforge.net/DTD/sodipodi-0.dtd"
   xmlns:inkscape="http://www.inkscape.org/namespaces/inkscape"
   width="0.78745162in"
   height="0.78736168in"
   viewBox="0 0 56.6965 56.690024"
   xml:space="preserve"
   class="st5"
   version="1.1"
   id="svg49"
   sodipodi:docname="Cognitive Services Bot Test in Web Chat.svg"
   style="font-size:12px;overflow:visible;color-interpolation-filters:sRGB;fill:none;fill-rule:evenodd;stroke-linecap:square;stroke-miterlimit:3"
   inkscape:version="0.92.5 (2060ec1f9f, 2020-04-08)"><metadata
   id="metadata55"><rdf:RDF><cc:Work
       rdf:about=""><dc:format>image/svg+xml</dc:format><dc:type
         rdf:resource="http://purl.org/dc/dcmitype/StillImage" /></cc:Work></rdf:RDF></metadata><defs
   id="defs53" /><sodipodi:namedview
   pagecolor="#ffffff"
   bordercolor="#666666"
   borderopacity="1"
   objecttolerance="10"
   gridtolerance="10"
   guidetolerance="10"
   inkscape:pageopacity="0"
   inkscape:pageshadow="2"
   inkscape:window-width="640"
   inkscape:window-height="480"
   id="namedview51"
   showgrid="false"
   inkscape:zoom="1.1153608"
   inkscape:cx="37.795344"
   inkscape:cy="37.791362"
   inkscape:window-x="0"
   inkscape:window-y="0"
   inkscape:window-maximized="0"
   inkscape:current-layer="svg49" />
	<style
   type="text/css"
   id="style2">
	<![CDATA[
		.st1 {fill:#a0a1a2;stroke:none;stroke-linecap:butt;stroke-width:51}
		.st2 {fill:#59b4d9;stroke:none;stroke-linecap:butt;stroke-width:51}
		.st3 {fill:#ffffff;stroke:none;stroke-linecap:butt;stroke-width:51}
		.st4 {fill:#ffffff;fill-opacity:0.48;stroke:none;stroke-linecap:butt;stroke-width:51}
		.st5 {fill:none;fill-rule:evenodd;font-size:12px;overflow:visible;stroke-linecap:square;stroke-miterlimit:3}
	]]>
	</style>

	<g
   id="g47"
   transform="translate(-51,-50.999987)">
		<title
   id="title4">Page-1</title>
		<g
   id="group6598-1"
   transform="translate(51,-51)">
			<title
   id="title6">Cognitive Services Bot Test in Web Chat</title>
			<g
   id="group6599-2">
				<title
   id="title8"> abs_web_chat_01</title>
				<g
   id="shape6600-3">
					<title
   id="title10">Sheet.6600</title>
					<path
   d="m 0,156.33 a 2.36226,2.36226 -180 0 0 2.36,2.36 h 51.97 a 2.36226,2.36226 -180 0 0 2.36,-2.36 V 104.36 A 2.36226,2.36226 -180 0 0 54.33,102 H 2.36 A 2.36226,2.36226 -180 0 0 0,104.36 Z"
   class="st1"
   id="path12"
   inkscape:connector-curvature="0"
   style="fill:#a0a1a2;stroke:none;stroke-width:51;stroke-linecap:butt" />
				</g>
				<g
   id="shape6601-5"
   transform="translate(0,-42.5197)">
					<title
   id="title15">Sheet.6601</title>
					<path
   d="m 2.36,144.52 h 51.97 a 2.3622,2.3622 0 0 1 2.36,2.36 v 11.81 H 0 v -11.81 a 2.3622,2.3622 0 0 1 2.36,-2.36 z"
   class="st2"
   id="path17"
   inkscape:connector-curvature="0"
   style="fill:#59b4d9;stroke:none;stroke-width:51;stroke-linecap:butt" />
				</g>
				<g
   id="shape6602-7"
   transform="translate(10.6299,-20.0787)">
					<title
   id="title20">Sheet.6602</title>
					<circle
   cx="3.5433099"
   cy="155.14999"
   class="st3"
   id="ellipse22"
   r="3.5433099"
   style="fill:#ffffff;stroke:none;stroke-width:51;stroke-linecap:butt" />
				</g>
				<g
   id="shape6603-9"
   transform="translate(24.8031,-20.0787)">
					<title
   id="title25">Sheet.6603</title>
					<circle
   cx="3.5433099"
   cy="155.14999"
   class="st3"
   id="ellipse27"
   r="3.5433099"
   style="fill:#ffffff;stroke:none;stroke-width:51;stroke-linecap:butt" />
				</g>
				<g
   id="shape6604-11"
   transform="translate(38.9764,-20.0787)">
					<title
   id="title30">Sheet.6604</title>
					<circle
   cx="3.5433099"
   cy="155.14999"
   class="st3"
   id="ellipse32"
   r="3.5433099"
   style="fill:#ffffff;stroke:none;stroke-width:51;stroke-linecap:butt" />
				</g>
				<g
   id="shape6605-13"
   transform="translate(28.3465)">
					<title
   id="title35">Sheet.6605</title>
					<path
   d="m 0,102 h 25.98 a 2.3622,2.3622 0 0 1 2.37,2.36 v 51.97 a 2.3622,2.3622 0 0 1 -2.37,2.36 H 0 Z"
   class="st4"
   id="path37"
   inkscape:connector-curvature="0"
   style="fill:#ffffff;fill-opacity:0.47999998;stroke:none;stroke-width:51;stroke-linecap:butt" />
				</g>
				<g
   id="shape6606-15"
   transform="translate(33.0709,-47.2441)">
					<title
   id="title40">Sheet.6606</title>
					<path
   d="m 0,153.97 h 9.45 v 4.72 H 0 Z m 14.17,0 h 4.73 v 4.72 h -4.73 z"
   class="st3"
   id="path42"
   inkscape:connector-curvature="0"
   style="fill:#ffffff;stroke:none;stroke-width:51;stroke-linecap:butt" />
				</g>
			</g>
		</g>
	</g>
</svg>

<?xml version="1.0" encoding="UTF-8" standalone="no"?>
<!DOCTYPE svg PUBLIC "-//W3C//DTD SVG 1.1//EN" "http://www.w3.org/Graphics/SVG/1.1/DTD/svg11.dtd">
<!-- Generated by Microsoft Visio, SVG Export Cognitive Services Bot Test in Web Chat.svg Page-1 -->
<svg xmlns="http://www.w3.org/2000/svg" xmlns:xlink="http://www.w3.org/1999/xlink" xmlns:ev="http://www.w3.org/2001/xml-events"
		width="2.20407in" height="2.20407in" viewBox="0 0 158.693 158.693" xml:space="preserve" color-interpolation-filters="sRGB"
		class="st5">
	<style type="text/css">
	<![CDATA[
		.st1 {fill:#a0a1a2;stroke:none;stroke-linecap:butt;stroke-width:51}
		.st2 {fill:#59b4d9;stroke:none;stroke-linecap:butt;stroke-width:51}
		.st3 {fill:#ffffff;stroke:none;stroke-linecap:butt;stroke-width:51}
		.st4 {fill:#ffffff;fill-opacity:0.48;stroke:none;stroke-linecap:butt;stroke-width:51}
		.st5 {fill:none;fill-rule:evenodd;font-size:12px;overflow:visible;stroke-linecap:square;stroke-miterlimit:3}
	]]>
	</style>

	<g>
		<title>Page-1</title>
		<g id="group6430-1" transform="translate(51,-51)">
			<title>Cognitive Services Bot Test in Web Chat</title>
			<g id="group6431-2">
				<title> abs_web_chat_01</title>
				<g id="shape6432-3">
					<title>Sheet.6432</title>
					<path d="M-0 156.33 A2.36226 2.36226 -180 0 0 2.36 158.69 L54.33 158.69 A2.36226 2.36226 -180 0 0 56.69 156.33
								 L56.69 104.36 A2.36226 2.36226 -180 0 0 54.33 102 L2.36 102 A2.36226 2.36226 -180 0 0 0 104.36 L0
								 156.33 Z" class="st1"/>
				</g>
				<g id="shape6433-5" transform="translate(0,-42.5197)">
					<title>Sheet.6433</title>
					<path d="M2.36 144.52 L54.33 144.52 A2.3622 2.3622 0 0 1 56.69 146.88 L56.69 158.69 L0 158.69 L0 146.88 A2.3622
								 2.3622 0 0 1 2.36 144.52 Z" class="st2"/>
				</g>
				<g id="shape6434-7" transform="translate(10.6299,-20.0787)">
					<title>Sheet.6434</title>
					<ellipse cx="3.54331" cy="155.15" rx="3.54331" ry="3.54331" class="st3"/>
				</g>
				<g id="shape6435-9" transform="translate(24.8031,-20.0787)">
					<title>Sheet.6435</title>
					<ellipse cx="3.54331" cy="155.15" rx="3.54331" ry="3.54331" class="st3"/>
				</g>
				<g id="shape6436-11" transform="translate(38.9764,-20.0787)">
					<title>Sheet.6436</title>
					<ellipse cx="3.54331" cy="155.15" rx="3.54331" ry="3.54331" class="st3"/>
				</g>
				<g id="shape6437-13" transform="translate(28.3465,0)">
					<title>Sheet.6437</title>
					<path d="M0 102 L25.98 102 A2.3622 2.3622 0 0 1 28.35 104.36 L28.35 156.33 A2.3622 2.3622 0 0 1 25.98 158.69
								 L0 158.69 L0 102 Z" class="st4"/>
				</g>
				<g id="shape6438-15" transform="translate(33.0709,-47.2441)">
					<title>Sheet.6438</title>
					<path d="M0 153.97 L9.45 153.97 L9.45 158.69 L0 158.69 L0 153.97 ZM14.17 153.97 L18.9 153.97 L18.9 158.69 L14.17
								 158.69 L14.17 153.97 Z" class="st3"/>
				</g>
			</g>
		</g>
	</g>
</svg>
